X: 26982
T: Miss E MacLeod
R: reel
M: 4/4
K: Amajor
B|A2 EC EFAE|A2 EA FBBc|A2 aA fAeA|GBEd cAA:|
g|a2 ec f2 df|e2 cA B2 GE|a2 e=g f2 df|ecdB cAAg|
a2 ea f2 df|e2 cA BGFE|FABA GBed|ceBd cAA||

